X:18671
T:When the Cock Crows it is Day
T:Ta an coileach ag fogairt an lae
R:slide
Z:id:hn-slide-13
M:6/8
K:G
D|:GAB BAG|d3 d2B|GAB BAG|A2G E2D|
GAB BAG|d2d ege|dBG AFD|1 G3 G2D:|2 G3 G2d||
|:gdd gdd|c3 c2d|gdd gdd|A3 A2d|
gdd gdd|Bcd ege|dBG AFD|1 G3 G2d:|2 G3 G2||


